packages/match-logos/mono/svg/twitch.svg

<svg fill="none" height="32" viewBox="0 0 105 32" width="105" xmlns="http://www.w3.org/2000/svg" xmlns:xlink="http://www.w3.org/1999/xlink"><clipPath id="a"><path d="m0 0h104.858v32h-104.858z"/></clipPath><g clip-path="url(#a)" fill="#1f304c"><path d="m7.6288 10.752-.00256-6.66753h-7.62624v20.01793l3.81312 3.8131 10.48448.0013v-7.6288h-6.6688v-1.9072h6.6688v-7.6288z"/><path d="m35.2638 10.752v9.536h-1.9072v-9.536h-7.616v9.536h-1.9072v-9.536h-7.6288v13.3504l3.8131 3.8131 22.8749.0013v-17.1648z"/><path d="m44.7998 10.752h7.6288v17.1635h-7.6262z"/><path d="m44.8024 4.08447h7.6262v4.77314h-7.6288z"/><path d="m74.3554 10.752-3.8144 3.8182v9.5322l3.8131 3.8131 11.4445.0013v-7.6288h-7.6288v-1.9072h7.6288v-7.6288z"/><path d="m101.043 10.7521h-5.7086v-6.66885h-7.6288v23.83365h7.616v-9.536h1.9072v9.536l7.6292-.0013v-13.3453z"/><path d="m61.9647 10.7521-.0038-6.66757-7.625-.00128v20.01925l3.8119 3.8131h10.4857v-7.6263l-6.6688-.0012v-1.9072h6.6688v-7.6288z"/></g></svg>

<svg width="105" height="32" viewBox="0 0 105 32" fill="none" xmlns="http://www.w3.org/2000/svg">
<g clip-path="url(#clip0)">
<path d="M7.6288 10.752L7.62624 4.08447H0V24.1024L3.81312 27.9155L14.2976 27.9168V20.288H7.6288V18.3808H14.2976V10.752H7.6288Z" fill="#1F304C"/>
<path d="M35.264 10.752V20.288H33.3568V10.752H25.7408V20.288H23.8336V10.752H16.2048V24.1024L20.0179 27.9155L42.8928 27.9168V10.752H35.264Z" fill="#1F304C"/>
<path d="M44.8 10.752H52.4288V27.9155H44.8025L44.8 10.752Z" fill="#1F304C"/>
<path d="M44.8025 4.08447H52.4288V8.85761H44.8L44.8025 4.08447Z" fill="#1F304C"/>
<path d="M74.3552 10.752L70.5408 14.5702V24.1024L74.3539 27.9155L85.7984 27.9168V20.288H78.1696V18.3808H85.7984V10.752H74.3552Z" fill="#1F304C"/>
<path d="M101.043 10.7521H95.3344V4.08325H87.7056V27.9169H95.3216V18.3809H97.2288V27.9169L104.858 27.9156V14.5703L101.043 10.7521Z" fill="#1F304C"/>
<path d="M61.9648 10.7521L61.961 4.08453L54.336 4.08325V24.1025L58.1478 27.9156H68.6336V20.2893L61.9648 20.2881V18.3809H68.6336V10.7521H61.9648Z" fill="#1F304C"/>
</g>
<defs>
<clipPath id="clip0">
<rect width="104.858" height="32" fill="white"/>
</clipPath>
</defs>
</svg>
